X: 1
T: Five Mile Chase, The
M: 4/4
L: 1/8
R: reel
S: Paddy Murphy
D: In Good Hands
Z: Daniel Bradbury
K: Gmaj
|:G2 ((3BAG) dG ((3BAG)|FADA FADA|G2BG dG ((3BAG)|gbab gedB|
G2((3BAG) dG ((3BAG)|FDAD BDAD|G2((3BAG) dG ((3BAG)|1gba{bd'}b g3d:|2gba{bd'}b g3G||
|:G2 ((3Bcd) ed ((3Bcd)|gd ((3Bcd) gdad|gd ((3Bcd) ed ((3Bcd)|gba{bd'}b g3b|
gbag ((3efg) eg|d2dB dBAB|d2de {ef}edBd|1((3efg) fa g3G:|2(3efg fa g3||
